src/img/cerrar.svg

<svg width="24" height="25" viewBox="0 0 24 25" fill="none" xmlns="http://www.w3.org/2000/svg">
<path d="M17.8711 17.4883C17.9531 17.5703 17.9941 17.6758 17.9941 17.8047C17.9941 17.9336 17.9531 18.0391 17.8711 18.1211C17.7773 18.2031 17.666 18.2441 17.5371 18.2441C17.4199 18.2441 17.3203 18.2031 17.2383 18.1211L12 12.8828L6.76172 18.1211C6.67969 18.2031 6.57422 18.2441 6.44531 18.2441C6.31641 18.2441 6.21094 18.2031 6.12891 18.1211C6.04688 18.0273 6.00586 17.9219 6.00586 17.8047C6.00586 17.6758 6.04688 17.5703 6.12891 17.4883L11.3672 12.25L6.12891 7.01172C6.04688 6.92969 6.00586 6.82422 6.00586 6.69531C6.00586 6.56641 6.04688 6.46094 6.12891 6.37891C6.22266 6.29688 6.32812 6.25586 6.44531 6.25586C6.57422 6.25586 6.67969 6.29688 6.76172 6.37891L12 11.6172L17.2383 6.37891C17.3203 6.29688 17.4258 6.25586 17.5547 6.25586C17.6836 6.25586 17.7891 6.29688 17.8711 6.37891C17.9531 6.47266 17.9941 6.58398 17.9941 6.71289C17.9941 6.83008 17.9531 6.92969 17.8711 7.01172L12.6328 12.25L17.8711 17.4883Z" fill="#56504C"/>
</svg>

<svg width="24" height="25" fill="none" xmlns="http://www.w3.org/2000/svg"><path d="M17.871 17.488a.428.428 0 01.123.317.428.428 0 01-.123.316.49.49 0 01-.334.123.407.407 0 01-.299-.123L12 12.883 6.762 18.12a.428.428 0 01-.317.123.428.428 0 01-.316-.123.468.468 0 01-.123-.316c0-.13.04-.235.123-.317l5.238-5.238L6.13 7.012a.428.428 0 01-.123-.317c0-.129.04-.234.123-.316a.468.468 0 01.316-.123c.13 0 .235.04.317.123L12 11.617l5.238-5.238a.428.428 0 01.317-.123c.129 0 .234.04.316.123a.49.49 0 01.123.334.407.407 0 01-.123.299l-5.238 5.238 5.238 5.238z" fill="#56504C"/></svg>
